X: 04031
T: The GIGGLE JIG
C: Bob McQuillen 8 Aug 79
B: Bob's Note Book 04 #31
R: jig
Z: 2020 John Chambers <jc:trillian.mit.edu>
M: 6/8
L: 1/8
K: D
A \
| DFA dfe | dAA B2A | GFG EFG | AFD E2A |\
| DFA dfe | dAA B2A | Bcd ede | fdd d2 :|
|: a \
| faf eag | fdd d2c | Bgf efd | cAA A2G |\
| FAF GBB | Adf afd | gec ABc | edd d2 :|
%%begintext align
%% I hope this tune reflects the
%% cheery spirit of the happy
%% boy for when I wrote it
%% With love to Brad Nielsen
%%endtext

%%sep 1 1 500

%%sep 1 1 500

